icon/lg/sitepoint.svg

<?xml version="1.0" encoding="UTF-8" standalone="no"?>
<svg viewBox="0 0 256 307" version="1.1" xmlns="http://www.w3.org/2000/svg" xmlns:xlink="http://www.w3.org/1999/xlink" height="1em" width="1em">
  <defs/>
  <g stroke="none" stroke-width="1" fill="none" fill-rule="evenodd">
    <g>
      <path d="M249.630577,171.957624 L227.034809,150.357602 L155.609203,84.7341299 L124.817682,113.974586 C122.002785,117.804377 122.194275,122.974595 125.392151,126.55545 L153.541116,150.798028 L153.445371,150.836326 L183.700721,179.751249 C187.281576,183.734232 187.185831,189.63211 183.432636,193.461902 L101.858084,270.976875 L138.949611,306.383295 L249.630577,201.217229 C258.113564,193.136369 258.132713,180.038483 249.630577,171.919326 L249.630577,171.957624 Z" fill="#07508B"/>
      <path d="M6.34309165,134.463968 L28.9388596,156.006544 L100.402763,221.630016 L131.175135,192.38956 C133.970883,188.598067 133.779393,183.389551 130.600667,179.808696 L102.451701,155.52782 L102.547446,155.470373 L72.2729469,126.574599 C68.73039,122.610765 68.8261348,116.693737 72.5601812,112.883095 L154.134733,35.3298237 L117.043206,0 L6.3622406,105.166066 C-2.12074687,113.246925 -2.12074687,126.36396 6.3622406,134.463968 L6.34309165,134.463968 Z" fill="#E57B25"/>
    </g>
  </g>
</svg>

<svg width="256" height="307" xmlns="http://www.w3.org/2000/svg"><g fill="none" fill-rule="evenodd"><path d="m249.63 171.958-22.595-21.6-71.426-65.624-30.791 29.24c-2.815 3.83-2.624 9 .574 12.581l28.15 24.243-.097.038 30.256 28.915c3.58 3.983 3.485 9.881-.268 13.71l-81.575 77.516 37.092 35.406 110.68-105.166c8.484-8.08 8.503-21.179 0-29.298v.039Z" fill="#07508B"/><path d="m6.343 134.464 22.596 21.543 71.464 65.623 30.772-29.24a9.965 9.965 0 0 0-.574-12.581l-28.15-24.281.096-.058-30.274-28.895c-3.543-3.964-3.447-9.881.287-13.692l81.575-77.553L117.043 0 6.363 105.166c-8.484 8.08-8.484 21.198 0 29.298h-.02Z" fill="#E57B25"/></g></svg>
